assets/img/design-skills.svg

<svg xmlns="http://www.w3.org/2000/svg" width="149" height="149" viewBox="0 0 149 149">
  <defs>
    <linearGradient id="design-skills-a" x1="0%" y1="0%" y2="95.386%">
      <stop offset="0%" stop-color="#072142"/>
      <stop offset="52.417%" stop-color="#8C2B7A"/>
      <stop offset="100%" stop-color="#FF4D5A"/>
    </linearGradient>
  </defs>
  <path fill="url(#design-skills-a)" fill-rule="evenodd" d="M0,76.9833333 L0,12.4166667 C0,6.0345 6.0345,0 12.4166667,0 L27.3166667,0 C28.6874667,0 29.8,1.11253333 29.8,2.48333333 C29.8,3.85413333 28.6874667,4.96666667 27.3166667,4.96666667 L12.4166667,4.96666667 C8.79596667,4.96666667 4.96666667,8.79596667 4.96666667,12.4166667 L4.96666667,76.9833333 C4.96666667,78.3541333 3.85413333,79.4666667 2.48333333,79.4666667 C1.11253333,79.4666667 0,78.3541333 0,76.9833333 L0,76.9833333 Z M136.583333,0 L111.75,0 C110.3792,0 109.266667,1.11253333 109.266667,2.48333333 C109.266667,3.85413333 110.3792,4.96666667 111.75,4.96666667 L136.583333,4.96666667 C140.204033,4.96666667 144.033333,8.79596667 144.033333,12.4166667 L144.033333,101.816667 C144.033333,105.437367 140.204033,109.266667 136.583333,109.266667 L12.4166667,109.266667 C8.79596667,109.266667 4.96666667,105.437367 4.96666667,101.816667 L4.96666667,89.4 L136.583333,89.4 C137.954133,89.4 139.066667,88.2874667 139.066667,86.9166667 C139.066667,85.5458667 137.954133,84.4333333 136.583333,84.4333333 L2.48333333,84.4333333 C1.11253333,84.4333333 0,85.5458667 0,86.9166667 L0,101.816667 C0,108.198833 6.0345,114.233333 12.4166667,114.233333 L136.583333,114.233333 C142.9655,114.233333 149,108.198833 149,101.816667 L149,12.4166667 C149,6.0345 142.9655,0 136.583333,0 L136.583333,0 Z M69.5333333,99.3333333 C69.5333333,102.07245 71.7608833,104.3 74.5,104.3 C77.2391167,104.3 79.4666667,102.07245 79.4666667,99.3333333 C79.4666667,96.5942167 77.2391167,94.3666667 74.5,94.3666667 C71.7608833,94.3666667 69.5333333,96.5942167 69.5333333,99.3333333 L69.5333333,99.3333333 Z M101.816667,144.033333 L99.3333333,144.033333 L99.3333333,141.55 C99.3333333,140.1792 98.2208,139.066667 96.85,139.066667 C95.4792,139.066667 94.3666667,140.1792 94.3666667,141.55 L94.3666667,144.033333 L89.4,144.033333 L89.4,141.55 C89.4,140.1792 88.2874667,139.066667 86.9166667,139.066667 C85.5458667,139.066667 84.4333333,140.1792 84.4333333,141.55 L84.4333333,144.033333 L79.4666667,144.033333 L79.4666667,141.55 C79.4666667,140.1792 78.3541333,139.066667 76.9833333,139.066667 C75.6125333,139.066667 74.5,140.1792 74.5,141.55 L74.5,144.033333 L69.5333333,144.033333 L69.5333333,141.55 C69.5333333,140.1792 68.4208,139.066667 67.05,139.066667 C65.6792,139.066667 64.5666667,140.1792 64.5666667,141.55 L64.5666667,144.033333 L59.6,144.033333 L59.6,141.55 C59.6,140.1792 58.4874667,139.066667 57.1166667,139.066667 C55.7458667,139.066667 54.6333333,140.1792 54.6333333,141.55 L54.6333333,144.033333 L49.6666667,144.033333 L49.6666667,141.55 C49.6666667,140.1792 48.5541333,139.066667 47.1833333,139.066667 C45.8125333,139.066667 44.7,140.1792 44.7,141.55 L44.7,144.033333 L39.7333333,144.033333 L39.7333333,141.55 C39.7333333,140.1792 38.6208,139.066667 37.25,139.066667 C35.8792,139.066667 34.7666667,140.1792 34.7666667,141.55 L34.7666667,144.033333 L29.8,144.033333 L29.8,141.55 C29.8,140.1792 28.6874667,139.066667 27.3166667,139.066667 C25.9458667,139.066667 24.8333333,140.1792 24.8333333,141.55 L24.8333333,144.033333 L19.8666667,144.033333 L19.8666667,141.55 C19.8666667,140.1792 18.7541333,139.066667 17.3833333,139.066667 C16.0125333,139.066667 14.9,140.1792 14.9,141.55 L14.9,144.033333 L12.4166667,144.033333 C11.0458667,144.033333 9.93333333,145.145867 9.93333333,146.516667 C9.93333333,147.887467 11.0458667,149 12.4166667,149 L101.816667,149 C103.187467,149 104.3,147.887467 104.3,146.516667 C104.3,145.145867 103.187467,144.033333 101.816667,144.033333 L101.816667,144.033333 Z M64.5666667,131.616667 L64.5666667,121.683333 C64.5666667,120.312533 63.4541333,119.2 62.0833333,119.2 C60.7125333,119.2 59.6,120.312533 59.6,121.683333 L59.6,131.616667 C59.6,132.987467 60.7125333,134.1 62.0833333,134.1 C63.4541333,134.1 64.5666667,132.987467 64.5666667,131.616667 L64.5666667,131.616667 Z M86.9166667,134.1 C88.2874667,134.1 89.4,132.987467 89.4,131.616667 L89.4,121.683333 C89.4,120.312533 88.2874667,119.2 86.9166667,119.2 C85.5458667,119.2 84.4333333,120.312533 84.4333333,121.683333 L84.4333333,131.616667 C84.4333333,132.987467 85.5458667,134.1 86.9166667,134.1 L86.9166667,134.1 Z M139.066667,144.033333 L139.066667,146.516667 C139.066667,147.887467 137.954133,149 136.583333,149 L116.716667,149 C115.345867,149 114.233333,147.887467 114.233333,146.516667 L114.233333,144.033333 C114.233333,138.5551 118.688433,134.1 124.166667,134.1 L129.133333,134.1 C134.611567,134.1 139.066667,138.5551 139.066667,144.033333 L139.066667,144.033333 Z M134.1,144.033333 C134.1,141.294217 131.87245,139.066667 129.133333,139.066667 L124.166667,139.066667 C121.42755,139.066667 119.2,141.294217 119.2,144.033333 L134.1,144.033333 L134.1,144.033333 Z M86.9166667,79.4666667 C88.2874667,79.4666667 89.4,78.3541333 89.4,76.9833333 L89.4,23.0627167 L99.3333333,7.16938333 L107.270067,19.8666667 L96.85,19.8666667 C95.4792,19.8666667 94.3666667,20.9792 94.3666667,22.35 C94.3666667,23.7208 95.4792,24.8333333 96.85,24.8333333 L111.75,24.8333333 C112.653933,24.8333333 113.483367,24.3441167 113.922917,23.5544167 C114.359983,22.7647167 114.33515,21.7987 113.855867,21.0338333 L101.4392,1.16716667 C100.5303,-0.285583333 98.1363667,-0.285583333 97.2274667,1.16716667 L84.8108,21.0338333 C84.56495,21.4286833 84.4333333,21.8831333 84.4333333,22.35 L84.4333333,76.9833333 C84.4333333,78.3541333 85.5458667,79.4666667 86.9166667,79.4666667 L86.9166667,79.4666667 Z M37.25,79.4666667 L52.15,79.4666667 C53.5208,79.4666667 54.6333333,78.3541333 54.6333333,76.9833333 C54.6333333,75.6125333 53.5208,74.5 52.15,74.5 L39.7333333,74.5 L39.7333333,69.5333333 L42.2166667,69.5333333 C43.5874667,69.5333333 44.7,68.4208 44.7,67.05 C44.7,65.6792 43.5874667,64.5666667 42.2166667,64.5666667 L39.7333333,64.5666667 L39.7333333,59.6 L42.2166667,59.6 C43.5874667,59.6 44.7,58.4874667 44.7,57.1166667 C44.7,55.7458667 43.5874667,54.6333333 42.2166667,54.6333333 L39.7333333,54.6333333 L39.7333333,49.6666667 L52.15,49.6666667 C53.5208,49.6666667 54.6333333,48.5541333 54.6333333,47.1833333 C54.6333333,45.8125333 53.5208,44.7 52.15,44.7 L39.7333333,44.7 L39.7333333,39.7333333 L42.2166667,39.7333333 C43.5874667,39.7333333 44.7,38.6208 44.7,37.25 C44.7,35.8792 43.5874667,34.7666667 42.2166667,34.7666667 L39.7333333,34.7666667 L39.7333333,29.8 L42.2166667,29.8 C43.5874667,29.8 44.7,28.6874667 44.7,27.3166667 C44.7,25.9458667 43.5874667,24.8333333 42.2166667,24.8333333 L39.7333333,24.8333333 L39.7333333,19.8666667 L52.15,19.8666667 C53.5208,19.8666667 54.6333333,18.7541333 54.6333333,17.3833333 C54.6333333,16.0125333 53.5208,14.9 52.15,14.9 L39.7333333,14.9 L39.7333333,4.96666667 L74.5,4.96666667 L74.5,76.9833333 C74.5,78.3541333 75.6125333,79.4666667 76.9833333,79.4666667 C78.3541333,79.4666667 79.4666667,78.3541333 79.4666667,76.9833333 L79.4666667,2.48333333 C79.4666667,1.11253333 78.3541333,0 76.9833333,0 L37.25,0 C35.8792,0 34.7666667,1.11253333 34.7666667,2.48333333 L34.7666667,76.9833333 C34.7666667,78.3541333 35.8792,79.4666667 37.25,79.4666667 L37.25,79.4666667 Z M111.75,29.8 C110.3792,29.8 109.266667,30.9125333 109.266667,32.2833333 L109.266667,76.9833333 C109.266667,78.3541333 110.3792,79.4666667 111.75,79.4666667 C113.1208,79.4666667 114.233333,78.3541333 114.233333,76.9833333 L114.233333,32.2833333 C114.233333,30.9125333 113.1208,29.8 111.75,29.8 L111.75,29.8 Z M96.85,32.2833333 L96.85,76.9833333 C96.85,78.3541333 97.9625333,79.4666667 99.3333333,79.4666667 C100.704133,79.4666667 101.816667,78.3541333 101.816667,76.9833333 L101.816667,32.2833333 C101.816667,30.9125333 100.704133,29.8 99.3333333,29.8 C97.9625333,29.8 96.85,30.9125333 96.85,32.2833333 L96.85,32.2833333 Z"/>
</svg>

<svg xmlns="http://www.w3.org/2000/svg" width="149" height="149" xmlns:v="https://vecta.io/nano"><defs><linearGradient id="A" x1="0%" y1="0%" y2="95.386%"><stop offset="0%" stop-color="#072142"/><stop offset="52.417%" stop-color="#8c2b7a"/><stop offset="100%" stop-color="#ff4d5a"/></linearGradient></defs><path fill="url(#A)" fill-rule="evenodd" d="M0 76.983V12.417C0 6.035 6.035 0 12.417 0h14.9c1.37 0 2.483 1.113 2.483 2.483s-1.113 2.483-2.483 2.483h-14.9c-3.62 0-7.45 3.83-7.45 7.45v64.567c0 1.37-1.113 2.483-2.483 2.483S0 78.354 0 76.983h0zM136.583 0H111.75c-1.37 0-2.483 1.113-2.483 2.483s1.113 2.483 2.483 2.483h24.833c3.62 0 7.45 3.83 7.45 7.45v89.4c0 3.62-3.83 7.45-7.45 7.45H12.417c-3.62 0-7.45-3.83-7.45-7.45V89.4h131.617c1.37 0 2.483-1.113 2.483-2.483s-1.113-2.483-2.483-2.483H2.483C1.113 84.433 0 85.546 0 86.917v14.9c0 6.382 6.035 12.417 12.417 12.417h124.167c6.382 0 12.417-6.035 12.417-12.417v-89.4C149 6.035 142.966 0 136.583 0h0zm-67.05 99.333c0 2.74 2.228 4.967 4.967 4.967s4.967-2.228 4.967-4.967-2.228-4.967-4.967-4.967-4.967 2.228-4.967 4.967h0zm32.283 44.7h-2.483v-2.483c0-1.37-1.113-2.483-2.483-2.483s-2.483 1.113-2.483 2.483v2.483H89.4v-2.483c0-1.37-1.113-2.483-2.483-2.483s-2.483 1.113-2.483 2.483v2.483h-4.967v-2.483c0-1.37-1.113-2.483-2.483-2.483S74.5 140.18 74.5 141.55v2.483h-4.967v-2.483c0-1.37-1.113-2.483-2.483-2.483s-2.483 1.113-2.483 2.483v2.483H59.6v-2.483c0-1.37-1.113-2.483-2.483-2.483s-2.483 1.113-2.483 2.483v2.483h-4.967v-2.483c0-1.37-1.113-2.483-2.483-2.483S44.7 140.18 44.7 141.55v2.483h-4.967v-2.483c0-1.37-1.113-2.483-2.483-2.483s-2.483 1.113-2.483 2.483v2.483H29.8v-2.483c0-1.37-1.113-2.483-2.483-2.483s-2.483 1.113-2.483 2.483v2.483h-4.967v-2.483c0-1.37-1.113-2.483-2.483-2.483S14.9 140.18 14.9 141.55v2.483h-2.483c-1.37 0-2.483 1.113-2.483 2.483S11.046 149 12.417 149h89.4c1.37 0 2.483-1.113 2.483-2.483s-1.113-2.483-2.483-2.483h0zm-37.25-12.417v-9.933c0-1.37-1.113-2.483-2.483-2.483s-2.483 1.113-2.483 2.483v9.933c0 1.37 1.113 2.483 2.483 2.483s2.483-1.113 2.483-2.483h0zm22.35 2.483c1.37 0 2.483-1.113 2.483-2.483v-9.933c0-1.37-1.113-2.483-2.483-2.483s-2.483 1.113-2.483 2.483v9.933c0 1.37 1.113 2.483 2.483 2.483h0zm52.15 9.933v2.483c0 1.37-1.113 2.483-2.483 2.483h-19.867c-1.37 0-2.483-1.113-2.483-2.483v-2.483c0-5.478 4.455-9.933 9.933-9.933h4.967c5.478 0 9.933 4.455 9.933 9.933h0zm-4.967 0c0-2.74-2.228-4.967-4.967-4.967h-4.967c-2.74 0-4.967 2.228-4.967 4.967h14.9zM86.917 79.467c1.37 0 2.483-1.113 2.483-2.483v-53.92L99.333 7.17l7.937 12.697H96.85c-1.37 0-2.483 1.113-2.483 2.483s1.113 2.483 2.483 2.483h14.9c.904 0 1.733-.49 2.173-1.28s.412-1.756-.067-2.52L101.44 1.167c-.91-1.453-3.303-1.453-4.212 0L84.81 21.034c-.246.395-.377.85-.377 1.316v54.633c0 1.37 1.113 2.483 2.483 2.483h0zm-49.667 0h14.9c1.37 0 2.483-1.113 2.483-2.483S53.52 74.5 52.15 74.5H39.733v-4.967h2.483c1.37 0 2.483-1.113 2.483-2.483s-1.113-2.483-2.483-2.483h-2.483V59.6h2.483c1.37 0 2.483-1.113 2.483-2.483s-1.113-2.483-2.483-2.483h-2.483v-4.967H52.15c1.37 0 2.483-1.113 2.483-2.483S53.52 44.7 52.15 44.7H39.733v-4.967h2.483c1.37 0 2.483-1.113 2.483-2.483s-1.113-2.483-2.483-2.483h-2.483V29.8h2.483c1.37 0 2.483-1.113 2.483-2.483s-1.113-2.483-2.483-2.483h-2.483v-4.967H52.15c1.37 0 2.483-1.113 2.483-2.483S53.52 14.9 52.15 14.9H39.733V4.967H74.5v72.017c0 1.37 1.113 2.483 2.483 2.483s2.483-1.113 2.483-2.483v-74.5c0-1.37-1.113-2.483-2.483-2.483H37.25c-1.37 0-2.483 1.113-2.483 2.483v74.5c0 1.37 1.113 2.483 2.483 2.483h0zm74.5-49.667c-1.37 0-2.483 1.113-2.483 2.483v44.7c0 1.37 1.113 2.483 2.483 2.483s2.483-1.113 2.483-2.483v-44.7c0-1.37-1.113-2.483-2.483-2.483h0zm-14.9 2.483v44.7c0 1.37 1.113 2.483 2.483 2.483s2.483-1.113 2.483-2.483v-44.7c0-1.37-1.113-2.483-2.483-2.483s-2.483 1.113-2.483 2.483h0z"/></svg>
